Sources/FrostedUI/Resources/Icons.xcassets/profile16.imageset/profile-16.svg

<svg width="16" height="16" viewBox="0 0 16 16" fill="none" xmlns="http://www.w3.org/2000/svg" data-fui-icon="true">
  <path
    d="M8.00098 8.5C10.5921 8.5001 12.5775 10.0541 13.3828 12.2314C13.6211 12.8757 13.4573 13.5122 13.0791 13.9629C12.7113 14.4012 12.1448 14.667 11.5361 14.667H4.46484C3.8565 14.6669 3.29059 14.401 2.92285 13.9629C2.54469 13.5122 2.38084 12.8757 2.61914 12.2314C3.42454 10.0541 5.4098 8.5 8.00098 8.5ZM8.00098 10C6.07078 10 4.62476 11.1313 4.02539 12.752C3.99116 12.8445 4.00629 12.9216 4.07129 12.999C4.14659 13.0887 4.28813 13.1669 4.46484 13.167H11.5361C11.7129 13.167 11.8543 13.0886 11.9297 12.999C11.9947 12.9216 12.0098 12.8445 11.9756 12.752C11.3762 11.1315 9.93104 10.0001 8.00098 10ZM8.00098 1C9.79582 1.00013 11.251 2.45516 11.251 4.25C11.251 6.04484 9.79582 7.49987 8.00098 7.5C6.20606 7.5 4.75098 6.04492 4.75098 4.25C4.75098 2.45508 6.20606 1 8.00098 1ZM8.00098 2.5C7.03449 2.5 6.25098 3.2835 6.25098 4.25C6.25098 5.2165 7.03449 6 8.00098 6C8.96738 5.99987 9.75098 5.21642 9.75098 4.25C9.75098 3.28358 8.96738 2.50013 8.00098 2.5Z"
    fill="currentColor"
  />
</svg>

<svg xmlns="http://www.w3.org/2000/svg" width="16" height="16" fill="none" data-fui-icon="true" viewBox="0 0 16 16"><path fill="currentColor" d="M8.001 8.5c2.591 0 4.577 1.554 5.382 3.731.238.645.074 1.281-.304 1.732a2.02 2.02 0 0 1-1.543.704H4.465a2.02 2.02 0 0 1-1.542-.704 1.73 1.73 0 0 1-.304-1.732C3.425 10.054 5.41 8.5 8.001 8.5m0 1.5c-1.93 0-3.376 1.131-3.976 2.752a.23.23 0 0 0 .046.247c.076.09.217.168.394.168h7.071a.52.52 0 0 0 .394-.168.23.23 0 0 0 .046-.247C11.376 11.132 9.93 10 8 10m0-9a3.25 3.25 0 1 1 0 6.5A3.25 3.25 0 0 1 8 1m0 1.5a1.75 1.75 0 1 0 0 3.5 1.75 1.75 0 0 0 0-3.5"/></svg>
